!!!COM: Anon.
!!!OCL: Francis James Child
!!!OPR: The English and Scottish Popular Ballads
!!!OVM: Vol. 1
!!!ONB: Ballad No. 19, Tune No. 1
!!!ONM: No. 19
!!!PDT: 1882
!!!YEM: Public domain.
**kern
*M4/4
{4f
=1
8g
8f
8g
8b-
16cc
8.dd
4cc}
!! Second phrase:
=2
{8b-
8g
8f
8d
4.c}
!! Third phrase:
{8B-
=3
8B-
8B-
8b-
8g
8g
8f
(16g
8f)}
!! Fourth phrase:
{16d
=4
8c
8B-
8c
8d
8f
4.g
=5
*M5/4
8g
8f
8g
8b-
8cc
8dd
8cc
8dd
4cc
=6
*M4/4
8b-
8g
8f
8d
4.c}
!! Fifth phrase:
{8B-
=7
8B-
8B-
8b-
8g
8g
8f
(16g
8f)}
!! Sixth phrase:
{16d
=8
8c
8B-
8c
8d
8f
4.g}
====
*-
!!!OCY: Britain; England
!!!PPP: Boston
!!!ODT: <1882
!!!AFR: folk song
!!!AST: monophony
!!!AMT: irregular
!!!SCA: Child Collection
!!!AIN: vox
!!!EEV: 1.0
!!!RDT: 1987 June
!!!YER: 1994 August 10
!!!VTS: 652652838
